X:1
T: The Bush in Bloom
C:
R:Reel
Q: 232
K:G
M:4/4
L:1/8
ge|d2 BG AG EF|G2 Bd ef ge|d2 BG AG Ed|ea ag fd e^c|
d2 BG AG EF|G2 Bd ef ge|d2 BG AG EF|GB AF G2 ef|
|:g2 dg Bg dg|g2 bg ag ef|g2 dg Bg dg|eg fa g2 ga|
bg ((3ggg) ag ef|ga ge de ga|bg af gf ed|ed ef ga ge:|
d2 BG AG EF|G2 Bd ef ge|d2 BG AG Ed|ea ag fd e^c|
d2 BG AG EF|G2 Bd ef ge|d2 BG AG EF|GB AF G2||
